X: 3
T: Brendan Tonra's
R: jig
M: 6/8
L: 1/8
K: Gmaj
A|B3 dBA|AGE DEG|BAB cBc|deB dBA|B3 dBA|AGE DEG|BAB cBc|dBG G2:|a|b2 g gfg |agf efg|b2g gfg|deB dga|b2g gfg|agf efg|bd'b c'af|gba g2:|


Tune 451	Setting 451

